X:237
T:Jeanette & Jeannot Quadrilles No.4. Le4.237
M:2/4
L:1/8
Q:2/4=50
B:L.Leadley MS#4 c1850
Z:Village Music Project 2016 Steve Mansfield
K:G
GG/G/ GD/G/ | Bd/B/ Gz | [gB][gB]/[gB]/ [fA][fA]/[fA]/ | ee/e/ d/c/B/A/ |
GG/G/ GD/G/ | Bd/B/ Gz |"1st time" gg/g/ gg | fd/e/ f/g/a/^a/ ||
"last time only" gg/g/ gf | gz [DBg] z || b>g dB | fe2 f/g/ |
a>a fd | gz {a}g/f/g/a/ | b>g dB | fe2 a/g/ |
f>df>e | dz zd | d>d fa | b>g dd/^c/ |
dd/e/ f/g/a/a/ | b2 zd/g/ | bc'/b/ a/g/f/e/ | d(3g/a/g/ e(3a/b/a/ |
g(3g/a/g/ f(3f/e/d/ | g(3G/B/d/ g z | !D.C>! |]

